icon-themes/breeze_svg/cmd/sc_flowchartshapes.flowchart-internal-storage.svg

<svg viewBox="0 0 16 16" xmlns="http://www.w3.org/2000/svg">/&gt;<path d="m2 2v4h4v-4zm5 0v4h7v-4zm-5 5v7h4v-7zm5 0v7h7v-7z" fill="#4d4d4d"/></svg>

<svg xmlns="http://www.w3.org/2000/svg" viewBox="0 0 16 16">
     />
 <path 
     style="fill:#4d4d4d" 
     d="M 2 2 L 2 6 L 6 6 L 6 2 L 2 2 z M 7 2 L 7 6 L 14 6 L 14 2 L 7 2 z M 2 7 L 2 14 L 6 14 L 6 7 L 2 7 z M 7 7 L 7 14 L 14 14 L 14 7 L 7 7 z "
     />
 </svg>
